lib/svgs/statistics.svg

<?xml version="1.0" encoding="UTF-8"?>
<svg width="16px" height="16px" viewBox="0 0 16 16" version="1.1" xmlns="http://www.w3.org/2000/svg" xmlns:xlink="http://www.w3.org/1999/xlink">
    <!-- Generator: sketchtool 51.3 (57544) - http://www.bohemiancoding.com/sketch -->
    <title>statistics</title>
    <desc>Created with sketchtool.</desc>
    <defs></defs>
    <g id="Icons" stroke="none" stroke-width="1" fill="none" fill-rule="evenodd">
        <g id="Deprecated" transform="translate(-322.000000, -161.000000)" fill="#000000" fill-rule="nonzero">
            <g id="statistics" transform="translate(322.000000, 161.000000)">
                <path d="M7.36792904,2.00046741 L7.36792904,8.63160355 L13.9990652,8.63160355 L13.9990652,9 C13.9990652,12.8505846 10.8501172,15.9995326 6.99953259,15.9995326 C3.14894797,15.9995326 0,12.8505846 0,9 C0,5.14941538 3.14894797,2.00046741 6.99953259,2.00046741 L7.36792904,2.00046741 Z M6.16792904,3.26044885 C3.36978299,3.6673531 1.2,6.09434346 1.2,9 C1.2,12.1878429 3.81168967,14.7995326 6.99953259,14.7995326 C9.90518913,14.7995326 12.3321795,12.6297496 12.7390837,9.83160355 L6.16792904,9.83160355 L6.16792904,3.26044885 Z M9,7.00046741 L9,0.000467413792 C13.0082997,0.000467413792 16,2.99216775 16,7.00046741 L9,7.00046741 Z"></path>
            </g>
        </g>
    </g>
</svg>

<svg xmlns="http://www.w3.org/2000/svg" viewBox="0 0 16 16">
    <path d="M7.368 2v6.632h6.631V9c0 3.85-3.149 7-7 7C3.15 16 0 12.85 0 9s3.149-7 7-7h.368zm-1.2 1.26A5.824 5.824 0 0 0 1.2 9c0 3.188 2.612 5.8 5.8 5.8a5.824 5.824 0 0 0 5.74-4.968H6.167V3.26zM9 7V0c4.008 0 7 2.992 7 7H9z"/>
</svg>
